packages/icons/svg/Outline/arrow-circle-left.svg

<svg fill="none" height="24" viewBox="0 0 24 24" width="24" xmlns="http://www.w3.org/2000/svg"><path clip-rule="evenodd" d="m16 11h-5.664l1.25-1.31c.381-.399.366-1.032-.033-1.414-.4-.38-1.032-.366-1.414.034l-2.86298 3c-.038.04-.055.09-.086.135-.041.059-.087.113-.114.181-.037.091-.049.186-.057.283-.003.031-.019.059-.019.091 0 .002.001.003.001.005.001.13.026.259.077.381.05.121.124.23.215.322l2.99998 2.999c.195.195.451.293.707.293s.512-.098.707-.293c.391-.391.391-1.023 0-1.414l-1.293-1.293h5.586c.552 0 1-.448 1-1s-.448-1-1-1zm-4 9.0001c-4.41098 0-7.99998-3.589-7.99998-8 0-4.41104 3.589-8.00003 7.99998-8.00003 4.411 0 8 3.58899 8 8.00003 0 4.411-3.589 8-8 8zm0-18.0001c-5.514 0-10 4.486-10 10s4.486 10 10 10 10-4.486 10-10-4.486-10-10-10z" fill="#6b7280" fill-rule="evenodd"/></svg>

<svg width="24" height="24" viewBox="0 0 24 24" fill="none" xmlns="http://www.w3.org/2000/svg">
<g id="Icon/Outline/arrow-circle-left">
<path id="Mask" fill-rule="evenodd" clip-rule="evenodd" d="M16 11H10.336L11.586 9.69C11.967 9.291 11.952 8.658 11.553 8.276C11.153 7.896 10.521 7.91 10.139 8.31L7.276 11.31C7.238 11.35 7.221 11.4 7.19 11.445C7.149 11.504 7.103 11.558 7.076 11.626C7.039 11.717 7.027 11.812 7.019 11.909C7.016 11.94 7 11.968 7 12C7 12.002 7.001 12.003 7.001 12.005C7.002 12.135 7.027 12.264 7.078 12.386C7.128 12.507 7.202 12.616 7.293 12.708L10.293 15.707C10.488 15.902 10.744 16 11 16C11.256 16 11.512 15.902 11.707 15.707C12.098 15.316 12.098 14.684 11.707 14.293L10.414 13H16C16.552 13 17 12.552 17 12C17 11.448 16.552 11 16 11ZM12 20C7.589 20 4 16.411 4 12C4 7.589 7.589 4 12 4C16.411 4 20 7.589 20 12C20 16.411 16.411 20 12 20ZM12 2C6.486 2 2 6.486 2 12C2 17.514 6.486 22 12 22C17.514 22 22 17.514 22 12C22 6.486 17.514 2 12 2Z" fill="#000000"/>
</g>
</svg>
